X:1
T:Nell'apparir del sempiterno sole
T:Francisco Soto de Langa (Langa, 1534 – Roma, 25 settembre 1619)
T:Et io vo' pianger si dirottamente ch'empia di calde lagrime un catino, dove si bagni il tenero Bambino. Io vò tor meco un poco d'esto fieno chìè qui d'intorno, e non avrò paura d'orso o di lupo o d'altra ria ventura. Io vò pregarlo con sommessa voce: "Signor, perdona li peccati miei, che perciò credo che venuto Sei!". Io non vò chieder né Città né Regni ma sol vò dirgli con un dolce riso: "Ben sia venuto il Re del Paradiso!
T:Poi cominciaro' vicendevolmente, con boscarecce e semplici parole, llieti a cantar, fin che nascesse il Sole. Io, dicea l'uno, alla capanna mia vorrei condurlo, ch'è lontana poco, dove né cibo mancherà né foco. Io, dicea l'altro, a la città Reale con frettolosi passi porterollo, stretto a le braccia et attaccato al collo. Io mi vo' por le picciol man' in seno e co i sospir scalfar le membra Sue, me' che non scalda l'asinello e 'l bue. 
T:Cantaron Gloria gli Angeli nel Cielo e meritaro' udir sì dolci accenti pastori che guardavano gli armenti. Onde là, verso l'umile Bethleemme preser la via dicendo: "andiam d'un tratto, e sì vedrem questo mirabil fatto!". Quivi trovaro' in vili panni avvolto il fanciul, con Gioseffe e(t) con Maria: o benedetta e nobil compagnia! Giunti i pastori all'umile Presepe, di stupor pieni e(t) d'alta meraviglia l'un verso l'altro fissero le ciglia. 
T:Pubblico dominio
Z:Pubblico dominio
%%score 1 2 3
L:1/8
Q:1/4=100
M:4/4
K:C
V:1 treble nm="Soprano"
V:2 treble nm="Alto"
V:3 treble-8 nm="Bass"
V:1
 E4 E2 E2 | A6 A2 | A3 A G2 F2 | E4 E4 | z2 F2 F2 F2 | F6 F2 | F3 F E2 F2 | G4 G4 | A4 A3 G | %9
w: Nell' ap\- pa\-|rir del|sem\- pi\- ter\- no|so\- le|Ch'a mez\- za|not\- te|più ri\- lu\- ce|tor\- no|Che l'al\- tro|
 F6 F2 | G3 F E2 D2 | E4 !fermata!D4 :| %12
w: non fa\-|ria di mez\- zo|gior\- no.|
V:2
 C4 C2 C2 | F6 F2 | F3 F E2 D2 | ^C4 C4 | D4 D2 D2 | D6 D2 | D3 D ^C2 D2 | E4 E4 | F4 F3 E | %9
w: Nell' ap\- pa\-|rir del|sem\- pi\- ter no|so\- le|Ch'a mez\- za|not\- te|più ri\- lu\- ce~in\-|tor\- no|Che l'al\- tro|
 D6 D2 | D3 D ^C2 D2 | D2 ^C2 !fermata!D4 :| %12
w: non fa\-|ria di mez\- zo|gior \- no.|
V:3
 A4 A2 A2 | F6 F2 | F3 F c2 d2 | A4 A4 | D4 D2 D2 | D6 D2 | D3 D A2 d2 | c4 c4 | F4 F3 F | _B6 B2 | %10
w: Nell' ap\- pa\-|rir del|sem\- pi\- ter no|so\- le|Ch'a mez\- za|not\- te|più ri\- lu\- ce~in\-|tor\- no|Che l'al\- tro|non fa\-|
 G3 G A2 _B2 | A4 !fermata!D4 :| %12
w: ria di mez\- zo|gior no.|

